images/sim-toolkit.svg

<?xml version="1.0" encoding="utf-8"?>
<!-- Generated by IcoMoon.io -->
<!DOCTYPE svg PUBLIC "-//W3C//DTD SVG 1.1//EN" "http://www.w3.org/Graphics/SVG/1.1/DTD/svg11.dtd">
<svg version="1.1" xmlns="http://www.w3.org/2000/svg" xmlns:xlink="http://www.w3.org/1999/xlink" width="30" height="30" viewBox="0 0 30 30">
<g>
	<line stroke-width="1" x1="" y1="" x2="" y2="" stroke="#449FDB" opacity=""></line>
</g>
	<path d="M4.84 3.042c-0.955 0-1.729 0.825-1.729 1.844l0.014 21.261c0 1.021 0.901 1.873 1.138 1.873h13.258c1.736 0 2.479-0.875 2.479-1.895v-19.173l-4.042-3.91h-11.118zM11.984 13.508h2.067v3.563h-2.067v-3.563zM8.967 13.465l2.033 0.043v3.563l-2.016-0.014-0.017-3.592zM6.026 14.928c0-0.79 0.742-1.421 1.533-1.421l0.483 0.004-0.016 3.548h-2v-2.131zM8.042 25.087l-0.797-0.021c-0.791 0-1.229-0.354-1.229-1.146l-0.016-1.896h2.016l0.026 3.063zM11.042 25.044h-2.052l-0.006-3.020h2.031l0.027 3.020zM14.052 25.044l-2.052-0.002-0.021-3.018h2.052l0.021 3.020zM17.041 24.036c0 0.791-0.771 1.027-1.562 1.027l-0.51-0.053 0.016-3.938-9.016-0.030v-3l11.031-0.031 0.041 6.025zM16.854 14.939v2.132h-1.928v-3.564h0.494c0.791 0.001 1.434 0.642 1.434 1.432zM25.373 7.101l0.559 2.464-1.369 1.644-1.645-1.097-0.234-2.492c-0.83 0.617-1.371 1.635-1.369 2.787 0.002 1.007 0.418 1.912 1.080 2.539 0.070 0.079 0.799 0.999 0.799 0.999v9.036c0 0 0 3.324 0 4.107s0.559 1.369 1.369 1.369c0.809 0 1.369-0.586 1.369-1.369s-0.041-12.209-0.041-12.209l0.041-0.936c0 0 0.785-0.939 0.871-1.033 0.637-0.623 1.031-1.509 1.029-2.494-0.004-1.594-1.049-2.937-2.459-3.315z" fill="#000000"></path>
</svg>

<?xml version="1.0" encoding="UTF-8" standalone="no"?>
<!-- Created with Inkscape (http://www.inkscape.org/) -->

<svg
   xmlns:dc="http://purl.org/dc/elements/1.1/"
   xmlns:cc="http://creativecommons.org/ns#"
   xmlns:rdf="http://www.w3.org/1999/02/22-rdf-syntax-ns#"
   xmlns:svg="http://www.w3.org/2000/svg"
   xmlns="http://www.w3.org/2000/svg"
   xmlns:inkscape="http://www.inkscape.org/namespaces/inkscape"
   version="1.1"
   width="30"
   height="30"
   viewBox="0 0 30 30"
   id="svg2">
  <metadata
     id="metadata10">
    <rdf:RDF>
      <cc:Work
         rdf:about="">
        <dc:format>image/svg+xml</dc:format>
        <dc:type
           rdf:resource="http://purl.org/dc/dcmitype/StillImage" />
      </cc:Work>
    </rdf:RDF>
  </metadata>
  <defs
     id="defs8" />
  <path
     d="m 4.84,3.042 c -0.955,0 -1.73,0.825 -1.73,1.844 l 0.015,21.26 c 0,1.022 0.9,1.874 1.138,1.874 H 17.52 c 1.737,0 2.48,-0.875 2.48,-1.895 V 6.952 L 15.958,3.042 H 4.84 z m 7.144,10.466 h 2.067 v 3.563 h -2.06 v -3.56 z M 8.967,13.465 11,13.508 v 3.563 l -2.016,-0.01 -0.017,-3.59 z m -2.94,1.463 c 0,-0.79 0.74,-1.42 1.532,-1.42 l 0.48,0.003 -0.02,3.55 h -2 v -2.13 z m 2.015,10.16 -0.797,-0.022 c -0.79,0 -1.23,-0.354 -1.23,-1.146 L 6,22.024 h 2.016 l 0.026,3.063 z m 3,-0.044 H 8.99 l -0.006,-3.02 h 2.03 l 0.028,3.02 z m 3.01,0 L 12,25.042 11.98,22.024 h 2.05 l 0.022,3.02 z m 2.99,-1.008 c 0,0.79 -0.772,1.027 -1.563,1.027 l -0.51,-0.053 0.01,-3.938 -9.02,-0.03 v -3 l 11.03,-0.03 0.04,6.024 z m -0.188,-9.097 v 2.13 H 14.926 V 13.5 h 0.494 c 0.79,0 1.434,0.642 1.434,1.432 z m 8.52,-7.84 0.558,2.46 -1.37,1.64 -1.644,-1.1 -0.234,-2.493 c -0.83,0.617 -1.37,1.635 -1.37,2.787 0.003,1.007 0.42,1.912 1.08,2.54 0.07,0.08 0.8,1 0.8,1 v 13.15 c 0,0 0.56,1.37 1.37,1.37 0.808,0 1.368,-0.59 1.368,-1.37 0,-0.78 -0.04,-12.21 -0.04,-12.21 l 0.04,-0.937 c 0,0 0.785,-0.94 0.87,-1.03 0.638,-0.62 1.032,-1.51 1.03,-2.493 -0.004,-1.594 -1.05,-2.937 -2.46,-3.315 z"
     inkscape:connector-curvature="0"
     id="path4" />
</svg>
